!!!COM: Palestrina, Giovanni Perluigi da
!!!OPR: In te Domine speravi (1593-4)
!!!OTL: Credo
**kern	**kern	**kern	**kern
*Ibass	*Itenor	*Icalto	*Icant
!Bassus	!Tenor	!Altus	!Cantus
*clefF4	*clefGv2	*clefG2	*clefG2
*k[]	*k[]	*k[]	*k[]
*D:dor	*D:dor	*D:dor	*D:dor
*M4/2	*M4/2	*M4/2	*M4/2
=1	=1	=1	=1
1r	1A	0r	0r
1D	2A	.	.
.	2A	.	.
=2	=2	=2	=2
2D	2d	0r	0r
2D	2d	.	.
2A	2.c	.	.
2A	.	.	.
.	4d	.	.
=3	=3	=3	=3
2G	4e	2r	0r
.	4d	.	.
4F	2.f	2d	.
4E	.	.	.
4D	.	2d	.
4E	4e	.	.
4F	[2d	2d	.
4G	.	.	.
=4	=4	=4	=4
1E	2d]	1g	1r
.	2c#	.	.
2D	1d	2.f	1a
2d	.	.	.
.	.	4e	.
=5	=5	=5	=5
2d	0r	4f	2a
.	.	4g	.
2c	.	1a	2a
1B	.	.	1dd
.	.	2g#	.
=6	=6	=6	=6
1A	2r	2.a	2.cc
.	2A	.	.
.	.	4g	4b
1r	2A	2f	4cc
.	.	.	4dd
.	2A	2e	[2ee
=7	=7	=7	=7
1D	1d	1f	2ee]
.	.	.	2dd
[1A	2.c	[1e	2.ee
.	4B	.	4dd
=8	=8	=8	=8
2A]	4c	1e]	2cc
.	4d	.	.
2G	1e	.	2b
1F	.	2r	1a
.	2d	[2a	.
=9	=9	=9	=9
1E	1e	2a]	2r
.	.	2g#	1ee
1r	1A	2a	.
.	.	2cc	2cc
=10	=10	=10	=10
0r	0r	2b	2dd
.	.	2.a	2ff
.	.	.	2ee
.	.	4g	.
.	.	4f	[2dd
.	.	4e	.
=11	=11	=11	=11
2r	1r	2f	4dd]
.	.	.	4cc
1A	.	2f	4cc
.	.	.	8b
.	.	.	8a
.	2r	1e	2b
2G#	[2e	.	2b
=12	=12	=12	=12
2A	2e]	2r	1ee
2c	2c	2a	.
2B	2d	2g	1r
2A	2f	2a	.
=13	=13	=13	=13
2A	2e	2cc	0r
4G	2e	2.b	.
8F	.	.	.
8E	.	.	.
1F	4d	.	.
.	4c	4a	.
.	4c	[2a	.
.	8B	.	.
.	8A	.	.
=14	=14	=14	=14
1E	1B	2a]	2r
.	.	2g#	1ee
2r	1A	1a	.
[2A	.	.	2cc#
=15	=15	=15	=15
2A]	2.e	2.a	1cc#
2A	.	.	.
.	4e	4a	.
2d	2f#	2a	1dd
2d	2f#	2b	.
=16	=16	=16	=16
1.c	1.g	1.cc	1.ee
2G	2g	2b	2dd
=17	=17	=17	=17
1G	1g	1b	1dd
1F	1a	1cc	1ff
=18	=18	=18	=18
1A	1a	1cc	1ee
1c	1g	1cc	1ee
=19	=19	=19	=19
1G	0g	0b	0dd
2.G	.	.	.
4F	.	.	.
=20	=20	=20	=20
1E	2.g	2.b	2r
.	.	.	2.ee
.	4f	4a	.
1r	2e	2g	.
.	.	.	4dd
.	[2f	[2a	2cc
=21	=21	=21	=21
0r	2f]	2a]	1dd
.	2d	2f	.
.	2.e	2.g	2b
.	.	.	[2cc
.	4d	4f	.
=22	=22	=22	=22
1r	2c	2e	4cc]
.	.	.	4b
.	2d	2f	1a
2r	1B	1d	.
[2d	.	.	2g#
=23	=23	=23	=23
2d]	1A	2r	1a
2c#	.	1a	.
1d	1f	.	2r
.	.	2a	[2dd
=24	=24	=24	=24
1A	1e	2a	2dd]
.	.	2a	2cc#
[1d	2f#	1a	2dd
.	2f#	.	2a
=25	=25	=25	=25
1d]	1f#	1a	1dd
1G	2g	2r	2b
.	[2g	[2b	[2dd
=26	=26	=26	=26
0r	2g]	2b]	2dd]
.	2f#	2a	2dd
.	2g	2b	2dd
.	2c	2cc	2ee
=27	=27	=27	=27
0r	2.g	2.b	2dd
.	.	.	2.gg
.	4f	4a	.
.	4e	1g	.
.	4d	.	4ff
.	4c	.	4ee
.	4B	.	4dd
=28	=28	=28	=28
0r	2A	2a	2cc
.	1a	2d	2dd
.	.	2e	1b
.	2g#	2e	.
=29	=29	=29	=29
1d	1a	2f	2r
.	.	2f	2a
2G	2r	1g	2b
2B	2d	.	2b
=30	=30	=30	=30
1A	2e	1a	1cc#
.	2e	.	.
1d	1f#	2r	1dd
.	.	2a	.
=31	=31	=31	=31
1G	1g	2b	2r
.	.	1g	2b
2c	1e	.	2cc
2A	.	[2a	2cc
=32	=32	=32	=32
2d	2f	2a]	2dd
2d	2f	2b	2dd
1c	2g	2cc	1ee
.	2g	2c	.
=33	=33	=33	=33
1A	1a	1e	2r
.	.	.	2cc
1d	2r	4f	1dd
.	.	4g	.
.	2f	4a	.
.	.	4b	.
=34	=34	=34	=34
1c	1g	1cc	1ee
2A	1a	2c	2ee
2A	.	2c	2ee
=35	=35	=35	=35
1F	2a	2.f	2dd
.	2a	.	2cc
.	.	8e	.
.	.	8d	.
1G	2g	2e	1b
.	2f	[2d	.
=36	=36	=36	=36
1A	1e	2d]	[0a
.	.	2c#	.
1D	2d	2d	.
.	[2f	[2d	.
=37	=37	=37	=37
1A	2f]	2d]	0a]
.	2e	2c	.
1r	2f	2d	.
.	2c	2e	.
=38	=38	=38	=38
0r	1d	1f	2r
.	.	.	1dd
.	2A	2e	.
.	[2f	[2a	2cc
=39	=39	=39	=39
0r	2f]	2a]	2dd
.	2e	2g	2ee
.	2d	2a	1ff
.	2d	2b	.
=40	=40	=40	=40
0r	4A	1cc	2ee
.	4B	.	.
.	4c	.	1a
.	4d	.	.
.	2e	1b	.
.	2e	.	2g#
=41	=41	=41	=41
1r	2f	2a	2a
.	4e	2g#	2b
.	4d	.	.
[1A	2.e	1a	2.cc
.	4d	.	4b
=42	=42	=42	=42
2A]	4e	0r	4cc
.	4f	.	4dd
2G	4g	.	1ee
.	4e	.	.
2A	1f	.	.
2B	.	.	2dd
=43	=43	=43	=43
2c	1e	2r	2ee
2A	.	1a	2cc
1B-	2r	.	1dd
.	[2d	2g	.
=44	=44	=44	=44
2A	2d]	2f	0r
2A	2c	2e	.
2G	2B	2g	.
[2F	2A	[2a	.
=45	=45	=45	=45
4F]	2c	4a]	1r
4E	.	4g	.
2D	1d	2f	.
2A	.	1e	2r
2A	2c#	.	2ee
=46	=46	=46	=46
2D	1d	2d	2ff
2d	.	2a	2ff
2A	1r	2cc	1ee
2c	.	2cc	.
=47	=47	=47	=47
4G	2r	1b	1.dd
4A	.	.	.
4B	2d	.	.
4c	.	.	.
1d	2f	[1a	.
.	2f	.	2dd
=48	=48	=48	=48
2A	1e	2a]	1cc
2A	.	2a	.
[1D	[1d	2.f	2r
.	.	.	2dd
.	.	4g	.
=49	=49	=49	=49
1D]	2d]	2a	2ff
.	2d	2a	2ff
1r	1c	2cc	1ee
.	.	2cc	.
=50	=50	=50	=50
1r	2r	1b	2dd
.	2d	.	1dd
2r	2f	2a	.
2A	2f	2a	[2cc
=51	=51	=51	=51
2c	1e	2g	4cc]
.	.	.	4b
2c	.	2c	1a
1B	1d	2r	.
.	.	2d	2g#
=52	=52	=52	=52
2A	1e	2d	1a
2A	.	2c	.
1D	2.d	1f	2r
.	.	.	2a
.	4c	.	.
=53	=53	=53	=53
1E	1B	1e	2a
.	.	.	2g
2r	2.A	2c	2.cc
2A	.	[2cc	.
.	4B	.	4dd
=54	=54	=54	=54
2A	2c	2cc]	4ee
.	.	.	4ff
2G	2d	4b	4gg
.	.	4a	4ff
1c	1e	2g	4ee
.	.	.	4dd
.	.	[2a	2cc
=55	=55	=55	=55
1B	2r	2a]	2.dd
.	2d	2g#	.
.	.	.	4ee
[1A	2d	[1a	2ff
.	2c	.	[2ee
=56	=56	=56	=56
0A]	1f	0a]	2ee]
.	.	.	1dd
.	1e	.	.
.	.	.	2cc#
=57	=57	=57	=57
1r	1d	0a	1dd
1d	1f#	.	1dd
=58	=58	=58	=58
1G	1g	1b-	1dd
1A	1e	1a	1cc
=59	=59	=59	=59
1F	2.f	1a	1cc
.	4e	.	.
1G	4d	1g	1b-
.	4c	.	.
.	[2d	.	.
=60	=60	=60	=60
1A	2d]	1e	1a
.	2c#	.	.
2r	2c#	2r	2r
[2A	[2e	[2a	[2cc#
=61	=61	=61	=61
2A]	2e]	2a]	2cc#]
1d	1f#	1a	1dd
2G	2g	2b	2dd
=62	=62	=62	=62
1A	1e	1a	1cc#
1d	1f	1a	1dd
=63	=63	=63	=63
2c	2g	0cc	[0ee
1A	1c	.	.
2G#	2B	.	.
=64	=64	=64	=64
2A	2c	1r	1ee]
2G#	2B	.	.
2A	2.c	[1a	2r
2F	.	.	[2cc
.	4d	.	.
=65	=65	=65	=65
1E	1e	2a]	2cc]
.	.	2g#	2b
1r	1r	2a	2cc
.	.	2g#	2b
=66	=66	=66	=66
1r	2r	2a	2cc
.	1d	2f	2dd
[1A	.	1e	1ee
.	4c#	.	.
.	4B	.	.
=67	=67	=67	=67
1A]	1c#	1a	1ee
1D	1d	1a	1ff
=68	=68	=68	=68
0A	1c	2a	2.ee
.	.	4A	.
.	.	4B	4dd
.	[1e	4c	4cc
.	.	4d	4b
.	.	4e	[2cc
.	.	4f	.
=69	=69	=69	=69
1G	2e]	1g	2cc]
.	4d	.	1b
.	4c	.	.
1D	2.d	1f	.
.	.	.	[2a
.	4c	.	.
=70	=70	=70	=70
0E	1B	[0e	2a]
.	.	.	4g#
.	.	.	4f#
.	1B	.	1g#
=71	=71	=71	=71
0A	0c#	0e]	0a
*	*	*	*-
!! Crucifixus
*Itenor	*Icalto	*Icant
!Tenor	!Altus	!Cantus
*clefGv2	*clefG2	*clefG2
*k[]	*k[]	*k[]
*D:dor	*D:dor	*D:dor
*M4/2	*M4/2	*M4/2
=72	=72	=72
0A	1r	0r
.	[1e	.
=73	=73	=73
1c	1e]	0r
1B	1g	.
=74	=74	=74
2A	1f	0r
1d	.	.
.	2e	.
2c	[2a	.
=75	=75	=75
2A	2a]	1r
2B	2g	.
2c	2e	[1a
[2d	[2f	.
=76	=76	=76
2d]	2f]	1a]
4c	4e	.
4B	4d	.
4A	2e	1cc
4G	.	.
2A	2f	.
=77	=77	=77
2G	1g	1b
1g	.	.
.	1d	2a
2f	.	[2dd
=78	=78	=78
2d	0r	2dd]
2e	.	2cc
2f	.	2a
4e	.	2b
4d	.	.
=79	=79	=79
4c	2r	1cc
4B	.	.
2A	1a	.
1e	.	1b
.	[2g	.
=80	=80	=80
1d	2g]	1dd
.	2f	.
1r	2e	2cc
.	2d	2b
=81	=81	=81
2r	1f	2a
1a	.	1cc
.	1e	.
[2g	.	[2b
=82	=82	=82
2g]	2r	4b]
.	.	4g
2f	2d	4a
.	.	4b
2e	2c	2cc
2d	2B	[2dd
=83	=83	=83
1f	2A	4dd]
.	.	4cc
.	1a	4cc
.	.	8b
.	.	8a
1e	.	1b
.	2g#	.
=84	=84	=84
2r	1a	[0a
1f	.	.
.	2r	.
2d	[2f	.
=85	=85	=85
2.f	2f]	1a]
.	2d	.
4g	.	.
2a	2f	2r
2e	2g	[2cc
=86	=86	=86
0f	4a	2cc]
.	4b	.
.	1cc	2a
.	.	2cc
.	4b	2dd
.	4a	.
=87	=87	=87
1e	2.g	4ee
.	.	4ff
.	.	1gg
.	4a	.
2.d	2b-	.
.	[2a	4ff
4c	.	4ee
=88	=88	=88
4A	2a]	2ff
4B	.	.
2.c	4g	2.ee
.	4f	.
.	2.g	.
4B	.	4dd
2G	.	[2dd
.	4f	.
=89	=89	=89
1A	1e	2dd]
.	.	2cc#
2r	4d	1dd
.	4e	.
2d	4f	.
.	4g	.
=90	=90	=90
2c	1a	2r
2f	.	2a
2e	2r	2g
2A	2a	2cc
=91	=91	=91
2e	2g	2b
2f	2cc	2a
2.g	2b	2dd
.	2e	2ee
8f	.	.
8e	.	.
=92	=92	=92
1d	2a	1ff
.	2b	.
4c	2cc	[1ee
4d	.	.
4e	4b	.
4f	4a	.
=93	=93	=93
1g	2b	2ee]
.	1cc	4dd
.	.	4cc
1g	.	1dd
.	2b	.
=94	=94	=94
2r	1cc	0ee
2c	.	.
1c	2r	.
.	2cc	.
=95	=95	=95
1A	1cc	2r
.	.	2cc
2r	1a	1cc
2f	.	.
=96	=96	=96
1f	4cc	2a
.	4b	.
.	4a	2cc
.	4g	.
2d	4f	4dd
.	4g	4cc
2f	[2a	4b
.	.	4a
=97	=97	=97
2.e	4a]	1b
.	8g#	.
.	8f#	.
.	2g#	.
4d	.	.
4c	2a	2a
4A	.	.
[2d	2f	2a
=98	=98	=98
2d]	1e	1ee
2c#	.	.
1d	2r	1ff
.	2d	.
=99	=99	=99
1r	1a	1.ee
1A	1cc	.
.	.	2ff
=100	=100	=100
1e	2b	1gg
.	1cc	.
1f	.	2aa
.	[2dd	2ff
=101	=101	=101
2e	4dd]	2gg
.	4cc	.
2f	2.cc	4ff
.	.	4ee
1g	.	1dd
.	8b	.
.	8a	.
.	2b	.
=102	=102	=102
4a	2cc	0cc
4g	.	.
4f	2a	.
4e	.	.
2f	2a	.
2e	2g	.
=103	=103	=103
1d	2.f	2r
.	.	2dd
.	4f	.
1A	2e	2dd
.	[2a	2cc
=104	=104	=104
1e	2a]	2.b
.	1g	.
.	.	4b
2r	.	[1a
2d	4f	.
.	4e	.
=105	=105	=105
2d	4f	1a]
.	4g	.
2c	1a	.
2.B	.	[1dd
.	2g#	.
4B	.	.
=106	=106	=106
0A	2.a	2dd]
.	.	4cc
.	4g	4b
.	2f	4cc
.	.	4dd
.	2e	[2ee
=107	=107	=107
1d	1f	2ee]
.	.	2dd
2c	1e	[1ee
2A	.	.
=108	=108	=108
2.c	2r	1ee]
.	2e	.
4c	.	.
2c	2.g	1r
2B	.	.
.	4g	.
=109	=109	=109
2c	2g	2r
2d	2f	2a
4e	2g	2.cc
8d	.	.
8e	.	.
2f	[2a	.
.	.	4cc
=110	=110	=110
1e	4a]	2cc
.	8g#	.
.	8f#	.
.	2g#	2b
2r	1a	2cc
2d	.	2dd
=111	=111	=111
2c	2r	4ee
.	.	8dd
.	.	8ee
2A	2a	2ff
2c	2g	1ee
[2c	2e	.
=112	=112	=112
2c]	2g	2r
2B	1g	2dd
[1A	.	2cc
.	2f	2a
=113	=113	=113
1A]	2.e	2cc
.	.	1cc
.	4f	.
2G	1g	.
2g	.	2b
=114	=114	=114
2f	2d	1a
2d	2dd	.
2.f	2cc	2a
.	[2a	2dd
4g	.	.
=115	=115	=115
1a	2a]	2cc
.	2.cc	2a
1A	.	2cc
.	4b	.
.	[2a	2cc
=116	=116	=116
0e	2a]	1b
.	4g#	.
.	4f#	.
.	2g#	2r
.	2g#	[2ee
=117	=117	=117
1c#	1a	2ee]
.	.	2ee
2.d	2r	1ff
.	[2a	.
4d	.	.
=118	=118	=118
1A	2a]	2ee
.	2a	2cc
2r	1cc	2ee
[2e	.	2ee
=119	=119	=119
2e]	2b	4gg
.	.	4ff
2e	2g	4ee
.	.	4dd
1f	2a	4cc
.	.	4b
.	2a	4cc
.	.	4dd
=120	=120	=120
2e	1cc	2.ee
2c	.	.
.	.	4ff
2e	2cc	2.gg
2e	4b	.
.	4a	8ff
.	.	8ee
=121	=121	=121
4g	4b	2dd
4f	4a	.
4e	4g	2.ee
4d	4f	.
4c	2e	.
4B	.	4dd
4c	[2a	2cc
4d	.	.
=122	=122	=122
2.e	2a]	1b
.	4g#	.
4d	4f#	.
2e	2g#	1r
[2f	2a	.
=123	=123	=123
4f]	2d	1r
4e	.	.
1d	2f	.
.	[1e	2r
4c#	.	[2ee
4B	.	.
=124	=124	=124
1c#	1e]	2ee]
.	.	2ee
1d	2r	1ff
.	[2a	.
=125	=125	=125
1A	2a]	2ee
.	2a	2cc
1r	1b-	2dd
.	.	2dd
=126	=126	=126
1r	2a	1ff
.	2f	.
2r	2a	[1ee
[2A	2a	.
=127	=127	=127
2A]	4cc	2ee]
.	4b	.
2A	4a	2cc
.	4g	.
1B-	4f	2dd
.	4e	.
.	4f	2dd
.	4g	.
=128	=128	=128
2A	2.a	1.ff
2F	.	.
.	4b	.
2A	1cc	.
2A	.	4ee
.	.	4dd
=129	=129	=129
4c	2g	4ee
4B	.	4dd
4A	2.a	4cc
4G	.	4b
4F	.	4a
4E	4g	8b
.	.	8cc
4F	2f	[2dd
4G	.	.
=130	=130	=130
1A	1e	2dd]
.	.	2cc
2.B-	1d	2.dd
4A	.	4cc
=131	=131	=131
0G	0g	0b-
=132	=132	=132
0d	0f#	0a
*-	*-	*-
!! Et in Spiritum
**kern	**kern	**kern	**kern
*Ibass	*Itenor	*Icalto	*Icant
!Bassus	!Tenor	!Altus	!Cantus
*clefF4	*clefGv2	*clefG2	*clefG2
*k[]	*k[]	*k[]	*k[]
*D:dor	*D:dor	*D:dor	*D:dor
*M4/2	*M4/2	*M4/2	*M4/2
=133	=133	=133	=133
1A	1A	0r	0r
2G#	2B	.	.
[2A	[2c	.	.
=134	=134	=134	=134
4A]	4c]	1A	0r
4A	4c	.	.
2F	2d	.	.
2G	1e	2B	.
2A	.	[2c	.
=135	=135	=135	=135
1F	1A	4c]	0r
.	.	4c	.
.	.	2d	.
1E	2B	1e	.
.	2c	.	.
=136	=136	=136	=136
4D	2d	1f	0r
4E	.	.	.
4F	4c	.	.
4G	4B	.	.
4A	1c	2e	.
4B	.	.	.
[2c	.	2e	.
=137	=137	=137	=137
4c]	1G	1d	1r
8B	.	.	.
8A	.	.	.
2B	.	.	.
2c	1A	[1e	2r
[2A	.	.	[2cc
=138	=138	=138	=138
2A]	0r	2e]	2cc]
2B	.	2d	2b
2c	.	2e	2a
2d	.	2f#	2a
=139	=139	=139	=139
4G	1.d	1g	4b
4A	.	.	4cc
4B	.	.	4dd
4c	.	.	4ee
2d	.	4f	2ff
.	.	4g	.
2c	2e	4a	[2ee
.	.	8g	.
.	.	8a	.
=140	=140	=140	=140
2B-	2f	1b-	4ee]
.	.	.	4dd
2G	2g	.	1dd
1A	1e	[1a	.
.	.	.	2cc#
=141	=141	=141	=141
2r	2d	0a]	0dd
1d	1f	.	.
2d	2f	.	.
=142	=142	=142	=142
2c#	2e	2r	1r
2c#	2e	1a	.
2.d	2.f	.	2r
.	.	2a	[2dd
4c	4e	.	.
=143	=143	=143	=143
2B	2d	2g#	2dd]
2B	2d	2g#	2dd
1A	2e	2.a	2cc#
.	[2A	.	2cc#
.	.	4g	.
=144	=144	=144	=144
1D	2A]	2f	2.dd
.	2.d	2f	.
.	.	.	4cc
1G	.	2d	2b
.	4c	.	.
.	2B	[2e	2g
=145	=145	=145	=145
1F	1A	2e]	1.a
.	.	2d	.
1E	1B	1e	.
.	.	.	2g
=146	=146	=146	=146
0r	1A	2e	1cc
.	.	1a	.
.	2r	.	1b
.	[2e	2g	.
=147	=147	=147	=147
1.A	2e]	1cc	1a
.	2c	.	.
.	1f	1a	1r
2F	.	.	.
=148	=148	=148	=148
1c	1.e	2g	0r
.	.	2.cc	.
2A	.	.	.
.	.	4b	.
2d	2f	[2a	.
=149	=149	=149	=149
2c	2e	2a]	2r
2B	2d	2g#	1dd
1A	1e	1a	.
.	.	.	2cc
=150	=150	=150	=150
1D	2r	1a	1ff
.	1d	.	.
1A	.	1a	1ee
.	2c	.	.
=151	=151	=151	=151
2.D	1.f	1.a	1dd
4E	.	.	.
2F	.	.	1cc
2C	2e	2g	.
=152	=152	=152	=152
1D	2.d	1f	2r
.	.	.	2a
.	4c	.	.
1E	1B	[1e	2a
.	.	.	2g
=153	=153	=153	=153
2r	1A	0e]	1cc
2A	.	.	.
2A	2r	.	2cc
2G	2e	.	[2b
=154	=154	=154	=154
2c	2e	1r	4b]
.	.	.	4a
2c	2e	.	1a
1B	2.d	2r	.
.	.	2d	2g#
.	4e	.	.
=155	=155	=155	=155
1A	2f	2d	[0a
.	2e	2c	.
2r	1d	2f	.
[2d	.	2f	.
=156	=156	=156	=156
2d]	2A	1e	1a]
2c#	1a	.	.
2d	.	1d	1r
2B	2g#	.	.
=157	=157	=157	=157
1A	2a	2r	0r
.	2f	1a	.
[1c	1e	.	.
.	.	2g	.
=158	=158	=158	=158
2c]	1g	2e	2r
2B	.	2g	1dd
2.A	2f	[1a	.
.	[2e	.	2cc#
4G	.	.	.
=159	=159	=159	=159
2F	4e]	2a]	2dd
.	4d	.	.
2G	1d	4g	2b
.	.	4f	.
1A	.	2e	2a
.	2c#	[2a	2ee
=160	=160	=160	=160
0r	2d	2a]	2ff
.	2A	2a	2.ee
.	1B-	4g	.
.	.	4f	4dd
.	.	4f	[2dd
.	.	8e	.
.	.	8d	.
=161	=161	=161	=161
1r	1A	1e	2dd]
.	.	.	2cc#
2r	2d	2d	1dd
2d	2d	2a	.
=162	=162	=162	=162
2c#	2e	2a	0r
2d	2f	2a	.
1G	1g	1b-	.
=163	=163	=163	=163
2A	2.f	2.a	2r
2D	.	.	2dd
.	4e	4g	.
2D	2d	2f	2dd
2A	2c#	2e	2ee
=164	=164	=164	=164
0D	0d	2d	0ff
.	.	2a	.
.	.	2a	.
.	.	2b	.
=165	=165	=165	=165
0r	2r	2cc	2.ee
.	2A	4cc	.
.	.	4b	4dd
.	2A	2a	2cc
.	2e	2g#	2b
=166	=166	=166	=166
2r	2A	2a	2a
2d	2f	2d	2a
2c#	2e	2e	2a
2d	2d	2f	2a
=167	=167	=167	=167
2G	2.d	2.g	2.b-
2G	.	.	.
.	4d	4g	4a
2.A	2.c	2f	2a
.	.	2e	2cc
4G	4B	.	.
=168	=168	=168	=168
2F	2A	2d	2dd
2E	2G	2c#	2ee
1D	1A	2d	2.ff
.	.	2a	.
.	.	.	4ff
=169	=169	=169	=169
1r	0r	2.a	2ff
.	.	.	2ee
.	.	4g	.
2r	.	2f	2dd
2A	.	2e	2cc#
=170	=170	=170	=170
2F	2r	1d	1dd
2G	2d	.	.
2A	2c	1r	1r
2B	2d	.	.
=171	=171	=171	=171
2c	2e	2r	0r
1d	2f	2a	.
.	2d	2f	.
4c	4e	2g	.
4B	4d	.	.
=172	=172	=172	=172
2A	4e	2a	0r
.	4f#	.	.
2G	1g	2b	.
1A	.	2cc	.
.	2f#	2a	.
=173	=173	=173	=173
1G	1g	1b-	2r
.	.	.	2dd
1r	2r	1a	2cc#
.	2d	.	2dd
=174	=174	=174	=174
0r	2c#	2r	2ee
.	1d	1a	1ff
.	2e	2g	2ee
=175	=175	=175	=175
0r	2f	2a	1dd
.	2g	2b	.
.	4c	2cc	1ee
.	4d	.	.
.	4e	2cc	.
.	4f	.	.
=176	=176	=176	=176
0r	2g	2b	2.dd
.	2d	1a	.
.	.	.	4cc
.	1e	.	4b
.	.	.	4a
.	.	2g#	2b
=177	=177	=177	=177
2r	1f	1a	2a
1D	.	.	1dd
.	[1f	2r	.
2D	.	[2a	2dd
=178	=178	=178	=178
2.F	2f]	2a]	0cc
.	2f	2a	.
4G	.	.	.
1A	1e	1a	.
=179	=179	=179	=179
1E	1e	1g#	1b
2.A	2.e	2.a	2.cc#
4A	4e	4a	4cc#
=180	=180	=180	=180
2A	2e	2a	2cc#
2A	2e	2a	2cc#
1d	1f#	1a	1dd
=181	=181	=181	=181
1G	1g	1b-	2dd
.	.	.	1dd
1A	2f	1a	.
.	2e	.	2cc#
=182	=182	=182	=182
1B-	4d	1f	2.dd
.	4e	.	.
.	2.f	.	.
.	.	.	4cc
1G	.	1g	1b-
.	8e	.	.
.	8d	.	.
.	2e	.	.
=183	=183	=183	=183
1F	1f	1.c	[0a
1A	1e	.	.
.	.	2c	.
=184	=184	=184	=184
1D	1f	1d	1a]
2A	2e	2c	2r
2A	2c	2A	2ee
=185	=185	=185	=185
1D	2d	1a	1ff
.	2d	.	.
1A	2c	2a	2ee
.	2A	4r	2cc
.	.	4a	.
=186	=186	=186	=186
0r	2G	1b-	2dd
.	2g	.	1ee
.	2f	2a	.
.	2d	2f	[2dd
=187	=187	=187	=187
2r	2e	2g	2dd]
2A	2.f	2a	2cc
1B-	.	4d	1dd
.	4e	4e	.
.	2d	4f	.
.	.	4d	.
=188	=188	=188	=188
2A	2c#	2e	1r
2F	1d	2f	.
2G	.	1e	2r
2A	2c#	.	2ee
=189	=189	=189	=189
4D	1d	0a	1ff
4E	.	.	.
4F	.	.	.
4G	.	.	.
4A	1r	.	2ee
4B	.	.	.
4c	.	.	2cc
4A	.	.	.
=190	=190	=190	=190
4B	1r	2g	2dd
4c	.	.	.
1d	.	2f	2dd
.	2r	1e	2ee
2c#	2e	.	2ee
=191	=191	=191	=191
1d	1f	2r	2.a
.	.	1a	.
.	.	.	4b
1A	2e	.	4cc
.	.	.	4dd
.	2c	2a	[2ee
=192	=192	=192	=192
2B-	2d	2g	4ee]
.	.	.	4dd
2B-	2d	4f	2dd
.	.	4g	.
2.A	2.e	4a	2cc
.	.	4b	.
.	.	[2cc	[2ee
4A	4f#	.	.
=193	=193	=193	=193
1G	1g	2cc]	2ee]
.	.	2b-	1dd
1A	1e	1a	.
.	.	.	2cc#
=194	=194	=194	=194
0D	0f#	0a	0dd
==	==	==	==
*-	*-	*-	*-
!!!CDT: 1525/^1526/-1594/2/2
!!!OCY: Italia
!!!AGN: Mass (Parody)
!!!AST: renaissance, vocal
!!!ASW: Motet (?Lhéritier)
!!!PWK: Masses, Book 6
!!!RNB: Cadence finals: A
!!!YOR: Le Opere Complete, v. 21, p. 26
!!!YOO: Rome, Italy: Fratelli Scalera
!!!END: 1992//
!!!EED: John Miller
!!!YEC: Copyright 2000, John Miller
!!!YEN: United States of America
!!!YEM: Rights to all derivative electronic formats reserved.
!!!YEM: Refer to licensing agreement for further details.
!!!YEM: This file must be accompanied by the licensing agreement.
!!!YEM: A copy of the licensing agreement may be found at http://www.music-cog.ohio-state.edu/HumdrumDatabases/Palestrina/license.txt
!!!EMD: converted to Humdrum by Bret Aarden
